**kern	**kern	**dynam
*part1	*part1	*part1
*staff2	*staff1	*
*I"Piano	*	*
*clefF4	*clefG2	*
*k[b-e-a-d-]	*k[b-e-a-d-]	*
=1	=1	=1
*^	*^	*
4AA-	2AA-	(2cc	2.e-	.
4E-	.	.	.	.
4GG	4GG	4b-)	.	.
=	=	=	=	=
4FF	2FF	4.ee-	2.e- 2.a-	.
4E-	.	.	.	.
.	.	8ddn	.	.
*v	*v	*	*	*
[4EE-	4ee-	.	.
=	=	=	=
*^	*	*	*
!	!	!	!	!LO:DY:a
(4E-	2.EE-_	2dd-X	2.e- 2.g	[ mf
4G	.	.	.	.
4B-	.	4b-	.	.
*	*	*v	*v	*
=	=	=	=
4e->	4EE-]	2e-	.
4f>	4rA	.	.
4g>)	4rA	4d-	.
*v	*v	*	*
=	=	=
*	*^	*
!	!LO:TX:a:i:t=legato	!	!
2.AA-	2a-	4c 4a-	.
.	.	4e- 4g	.
.	4a-	4d- 4f	.
=	=	=	=
2.BB-	4.a-	4c 4e-	.
.	.	4B- 4d-	.
.	8g	.	.
*^	*	*	*
.	4A-	4b-	4c	.
=	=	=	=	=
4G	2.EE-	2dd-	4B-	.
*	*	*v	*v	*
!	!	!	!LO:DY:a
4F 4A-	.	.	<
4E- 4G	.	4b-	.
=	=	=	=
4F	4D-	2g	.
[4E-	[4C	.	.
!	!	!	!LO:DY:a
4C] 4E-] 4A-	4AA-	4a- 4ee- 4gg-X 4aa-	[ f
*v	*v	*	*
=	=	=
*-	*-	*-
!!!system-decoration: {(s1,s2)}
!!!RDF**kern: > = above
